!!!!SEGMENT: pl-wnifc--6809-n_teichmann-antoni--zdrowac-marya.krn
!!!cenid: 18xx:3991
!!!COM: Teichmann, Antoni
!!!COM-rismID: pe30024959
!!!CDT: 1798-1877/04/23
!!!CNT: Polish
!!!OTL: Zdrować Marya
!!!PDT:
!!!AGN:
!!!SMS-siglum: PL-Wnifc
!!!SMS-shelfmark: 6809/n
!!!SMS-shelfwork: W
!!!SMS-variant:
!!!SMS-altvar:
!!!NIFC-rismSourceID: 1001159680
!!!NIFC-rismChildID: 1001159680
!!!NIFC-islandoraID: nifc:213612
!!!URL-pdf-islandora: https://repozytorium.nifc.pl/islandora/object/nifc%3A213612/datastream/PDF/view
!!!URL-scan: https://polish.musicsources.pl/pl/lokalizacje/galeria/druki-muzyczne/16929 @EN{Scan on Polish Music Sources Website} @PL{Skany w portalu Dziedzictwo Muzyki Polskiej w otwartym dostępie}
!!!ONB-nifc:
!!!AIN: 2 piano 1 soprn
!!!key: D
**kern	**kern	**dynam	**kern	**text	**text	**dynam
*part3	*part2	*part2	*part1	*part1	*part1	*part1
*staff3	*staff2	*	*staff1	*staff1	*staff1	*
*I"FORTE	*I"PIANO	*	*I"SOPRANO	*	*	*
*I'pf	*I'pf	*	*I'S	*	*	*
*Ipiano	*Ipiano	*	*Isoprn	*	*	*
*ICklav	*ICklav	*	*ICvox	*	*	*
*clefF4	*clefG2	*	*clefG2	*	*	*
*k[f#c#]	*k[f#c#]	*	*k[f#c#]	*	*	*
*D:	*D:	*	*D:	*	*	*
*M4/4	*M4/4	*	*M4/4	*	*	*
*met(c)	*met(c)	*	*met(c)	*	*	*
=1	=1	=1	=1	=1	=1	=1
!	!	!	!LO:TX:a:B:t=Andantino	!	!	!
!	!	!	!LO:TX:a:B:t=Andantino religioso	!	!	!
*ped	*	*	*	*	*	*
2DD:\ 2FF#: 2AA: 2D:	2F#'>:/ 2A: 2d: 2f#:	pp	1r	.	.	.
2BBB:\ 2DD#X: 2FF#: 2BB:	2F#':/ 2B: 2d#X: 2f#:	.	.	.	.	.
=2	=2	=2	=2	=2	=2	=2
2EE:\ 2GG#X: 2BB: 2E:	2G#X'>:/ 2B: 2e: 2g#X:	.	1r	.	.	.
2AAA:/ 2CC#: 2EE: 2AA:	2A'>:/ 2c#: 2e: 2a:	.	.	.	.	.
=3	=3	=3	=3	=3	=3	=3
2BBB:\ 2DDn: 2FF#: 2BB:	2En'>:/ 2G: 2B: 2dn:	.	1r	.	.	.
2EEE:/ 2GGGn: 2BBB: 2EE:	2F#'>:/ 2B: 2d#X: 2f#:	.	.	.	.	.
=4	=4	=4	=4	=4	=4	=4
2AAA:\ 2CC#: 2EE: 2AA:	2E;:/ 2G: 2c#: 2e:	.	1r;	.	.	.
*Xped	*	*	*	*	*	*
2r	2r	.	.	.	.	.
!LO:LB:g=original	!LO:LB:g=original	!	!	!	!LO:LB:g=original	!
=5||	=5||	=5||	=5||	=5||	=5||	=5||
!LO:TX:t=P:problem:znak Segno przed nutami	!LO:TX:t=P:problem:znak Segno przed nutami	!	!LO:TX:t=P:problem:znak Segno przed nutami	!	!	!
*ped	*tremolo	*	*	*	*	*
1DD 1D	(8d/L 8f#	p	2a/	1 Zdro-	2. Zdro-	.
.	8A</	.	.	.	.	.
.	8d/ 8f#	.	.	.	.	.
.	8A</J)	.	.	.	.	.
.	(>8c#/L 8g	.	4cc#\	-waś	-waś	.
.	8A</	.	.	.	.	.
.	8d/ 8f#	.	4dd\	Ma-	Ma-	.
.	8A</J)	.	.	.	.	.
=6	=6	=6	=6	=6	=6	=6
2AAA\ 2AA	(>8c#/L 8a	.	(4.ff#\	-ry-	-ry-	.
.	8A</	.	.	.	.	.
.	8c#/ 8g	.	.	.	.	.
.	8A</J)	.	8ee\)	.	.	.
4DD\ 4D	(8d/L 8f#	.	2dd\	-a!	-a!	.
.	8A/	.	.	.	.	.
*Xped	*	*	*	*	*	*
4r	8d/ 8f#	.	.	.	.	.
.	8A</J)	.	.	.	.	.
=7	=7	=7	=7	=7	=7	=7
*	*	*	*^	*	*	*
2BBB\ 2BB	(8B/L 8d	.	2dd\	2.dd/	Przed	Tyś	<
.	8F#/	.	.	.	.	.	.
.	8B/ 8d	.	.	.	.	.	.
.	8F#</J)	.	.	.	.	.	.
2BBB-X\ 2BB-X	(8G#X/L 8d 8e	.	4dd\	.	.	zbio-	.
.	8E/	.	.	.	.	.	.
.	8G#/ 8d 8e	.	4dd\	4dd/	Twój	-rem	.
.	8E</J)	.	.	.	.	.	[[
*	*	*	*v	*v	*	*	*
=8	=8	=8	=8	=8	=8	=8
!	!	!	!	!	!	!LO:DY:a
4AAA\ 4AA	(>8c#/L 8e	.	(2.cc#\	tron	cnot	<
.	8A</	.	.	.	.	.
4FF#\ 4F#	8A#X</ 8f#	.	.	.	.	.
.	8c#/J)	.	.	.	.	.
4EEn\ 4En	(>8A#X</L 8gn	.	.	.	.	.
.	8c#/	.	.	.	.	.
4AAAn\ 4AAn	8An</ 8g	.	4bn\)	Wzno-	Ty	[[
.	8c#/J)	.	.	.	.	.
!LO:LB:g=original	!LO:LB:g=original	!	!LO:LB:g=original	!	!	!
=9	=9	=9	=9	=9	=9	=9
*ped	*	*	*	*	*	*
1DD 1D	(8d/L 8f#	pp	4an/	-si-	ko-	.
.	8A</	.	.	.	.	.
.	8d/ 8f#	.	4dd\	-my	-isz	.
.	8A</J)	.	.	.	.	.
.	(>8c#/L 8g 8a	.	8cc#\	kor-	na-	.
.	8A</	.	8b\	-nych	-szych	.
.	8d/ 8f# 8a	.	8a\	mo-	cier-	.
.	8A</J)	.	8dd\	-dłów	-pień	.
=10	=10	=10	=10	=10	=10	=10
*	*tremolo	*	*	*	*	*
2AAA\ 2AA	(>8c#/L 8g 8a	.	(4.ff#\	pie-	tros-	.
.	8A</	.	.	.	.	.
.	8c#/ 8g	.	.	.	.	.
.	8A</J)	.	8ee\)	.	.	.
2DD\ 2D	(>8d/L 8f#	.	4dd\	-nia,	-ki,	.
.	8A</	.	.	.	.	.
.	8B#X/ 8f#	.	(4dd\	Niech	Ty	.
*Xped	*	*	*	*	*	*
.	8A</J)	.	.	.	.	.
=11	=11	=11	=11	=11	=11	=11
*	*	*	*^	*	*	*
2CC#\ 2C#	(>8A#X</L 8f#	.	8ff#\L)	8ff#/	próśb	w strzy-	.
.	8c#/	.	8a#X\J	8a#/	po-	.	.
.	8A#/ 8f#	.	8g#X/	2.ryy	-boż-	-masz	.
.	8c#/J)	.	8an/	.	-nych	nie-	.
2CC#\ 2C#	(>8B</L 8g#X	.	4.b/	.	na-	-szczę-	.
.	8c#/	.	.	.	.	.	.
.	8B</ 8e#X	.	.	.	.	.	.
.	8c#/J)	.	8g#/	.	-szych	-ścia	.
!LO:LB:g=original	!LO:LB:g=original	!	!LO:LB:g=original	!	!	!	!
*	*	*	*v	*v	*	*	*
=12	=12	=12	=12	=12	=12	=12
*^	*	*	*	*	*	*
!	!	!	!	!	!	!	!LO:DY:a
2CC#\ 2C#	8ryy	12A/ 12f#	.	2a#X/	ton,	grot,	<
*	*	*Xtremolo	*	*	*	*	*
!	!	!LO:TUP:b	!	!	!	!	!
.	.	12f#/L 12a#X 12ff#	.	.	.	.	.
.	8r	.	.	.	.	.	.
.	.	12f#/J 12a# 12ff#	.	.	.	.	.
*	*Xtuplet	*	*	*	*	*	*
!	!	!LO:TUP:b	!	!	!	!	!
.	12C#/L 12F# 12A#X	12f#/L 12a# 12ff#	.	.	.	.	.
.	12C#/ 12F# 12A#	12g#X/ 12b 12gg#X	.	.	.	.	.
.	12C#/J 12F# 12A#	12a#/J 12cc# 12aa#X	<	.	.	.	.
2CC#\ 2C#	8re	8a#'/ 8cc# 8aa#	.	4r	.	.	[
.	8C#/L 8E#X 8G#X 8B	8g#'/L 8b 8gg#	.	.	.	.	.
!	!	!	!	!	!	!	!LO:DY:a
.	8C#/ 8E# 8G# 8B	8e#X'/ 8g# 8ee#X	.	(4cc#\	W nie-	Ty	ff
.	8C#/J 8E# 8G# 8B	8g#'/J 8b 8gg#	[[	.	.	.	.
*v	*v	*	*	*	*	*	*
=13	=13	=13	=13	=13	=13	=13
4DD#X\ 4D#X	8r	.	(4ff#\)	-bio-	zje-	.
.	8f#'/L 8a#X 8ff#	ff	.	.	.	.
4BBB\ 4BB	8e#X'/ 8cc# 8ee#X	.	8ee#X\)	.	.	.
.	8d#X'/J 8b 8dd#X	.	8dd#X\	-sów	-dnaj	.
!	!LO:TUP:b	!	!	!	!	!
4CC#\ 4C#	12c#/L 12a#X 12cc#	.	8cc#\	w zno-	nam	.
.	12A#X/ 12f# 12a#	.	.	.	.	.
.	.	.	8cc#\	-si	łask	.
.	12c#/J 12a# 12cc#	.	.	.	.	.
!	!LO:TUP:b	!	!	!	!	!
4CC#\ 4C#	12B/L 12c# 12g#X 12b	.	(8.cc#\	się	pro-	.
.	12B/ 12c# 12g#	.	.	.	.	.
.	12B/J 12c# 12a#X	.	.	.	.	.
.	.	.	16e#X/)	skle-	-mień	.
=14	=14	=14	=14	=14	=14	=14
[2FF#\ [2F#	8r	.	4f#/	-pie-	Bos-	.
!	!LO:TX:b:t=dimi.	!	!	!	!	!
.	8A#X'/L 8c# 8f# 8a#X	.	.	.	.	.
.	.	.	16qqa#X/LL	.	.	.
.	.	.	16qqg#X/JJ	.	.	.
.	8A#'/ 8c# 8f# 8a#	.	4f#/	-nia.	-ki!	.
.	8A#'/J 8c# 8f# 8a#	>	.	.	.	.
4FF#\] 4F#]	8A#'/L 8c# 8f# 8a#	.	4r	.	.	.
.	8A#'/ 8c# 8f# 8a#	.	.	.	.	.
4r	8A#'/ 8c# 8f# 8a#	.	4f#/	Spo-	W u-	.
.	8A#'/J 8c# 8f# 8a#	]]	.	.	.	.
!LO:LB:g=original	!LO:LB:g=original	!	!	!LO:LB:g=original	!	!
=15	=15	=15	=15	=15	=15	=15
!	!	!	!LO:TX:a:i:t=dolce	!	!	!
*ped	*	*	*	*	*	*
4DDn/ 4Dn	8r	.	(4.f#/	-koj-	-smie-	.
.	8An/L 8cn 8f# 8an	pp	.	.	.	.
4r	8A/ 8c 8f# 8a	.	.	.	.	.
.	8A/J 8c 8f# 8a	.	8een\)	-nie	-chu	.
4DD/ 4D	8r	.	8ddn\	każ-	twym	.
.	8A/L 8c 8f# 8a	.	8ccn\	-da	ta	.
4DD/ 4D	8r	.	8b/	noc	god-	.
.	8A/J 8c 8f# 8a	.	8an/	prze-	-ność	.
=16	=16	=16	=16	=16	=16	=16
[2DD/ [2D	8r	.	8.b/L	-mi-	swie-	.
.	8B/L 8d 8gn	.	.	.	.	.
.	.	.	16a/Jk	.	-ci	.
.	8B/ 8d 8g	.	4gn/	-ja	.	.
.	8B/J 8d 8g	.	.	.	.	.
4DD/] 4D]	8B/L 8d 8g	.	4r	.	.	.
.	8B/ 8d 8g	.	.	.	.	.
*Xped	*	*	*	*	*	*
4r	8B/ 8d 8g	.	4g/	Pod	A	.
.	8B/J 8d 8g	.	.	.	.	.
=17	=17	=17	=17	=17	=17	=17
4DD\ 4D	8r	.	4.g/	stra-	w sło-	.
.	8B-X/L 8d 8g	.	.	.	.	.
4DD\ 4D	8r	.	.	.	.	.
.	8B-/J 8d 8g	.	8g/	-żą	-wie	.
2EE-X\ 2E-X	8r	.	8g/	Bos-	je-	.
.	8G</L 8B-X< 8g	.	8g/	-kiej	-dnym	.
.	8A</ 8cn< 8g	.	8a/	pie-	zie-	.
.	8G</J 8c#X< 8g	.	8g/	-czy	-mi	.
!LO:LB:g=original	!LO:LB:g=original	!	!LO:LB:g=original	!LO:LB:g=original	!	!
=18	=18	=18	=18	=18	=18	=18
!	!	!	!	!	!	!LO:DY:a
[2DD\ [2D	8r	.	2.f#/	Twéj;	los;	>
.	8A</L 8d 8f#	.	.	.	.	.
.	8A</ 8d 8f#	.	.	.	.	.
.	8A</J 8d 8f#	.	.	.	.	.
4DD\] 4D]	8A</L 8d 8f#	.	.	.	.	.
.	8A</ 8d 8f#	.	.	.	.	.
4r	8A</ 8d 8f#	.	4f#/	O!	O!	]]
.	8A</J 8d 8f#	.	.	.	.	.
=19	=19	=19	=19	=19	=19	=19
!	!	!	!	!	!	!LO:DY:a
[2AAA/ [2AA	8r	.	4.g/	Ma-	Ma-	<
.	8A/L 8c#X 8g	p	.	.	.	.
.	8A/ 8c# 8g	.	.	.	.	.
.	8A/J 8c# 8g	.	8an\	-ryo	-tko!	.
8AAA/] 8AA]	8r	.	8bn\	niech	przyjm	.
8GG/L 8G	8A/L 8c# 8e	<	8cc#X\	Twa	bła-	.
8FF#/ 8F#	8A/ 8c# 8e	.	8dd\	łas-	-ga-	.
8EE/J 8E	8A/J 8c# 8e	[[	8ee\	-ka	-nia	[[
=20	=20	=20	=20	=20	=20	=20
!	!	!	!	!	!	!LO:DY:a
((2DD#X/ 2D#X	8r	.	(2ff#\	sprzy-	dzie-	f
.	8cn/L 8f# 8a	rf	.	.	.	.
.	8B/ 8f# 8a	.	.	.	.	.
.	8c/J 8f# 8a	.	.	.	.	.
8EE\)) 8E	8r	.	8gg\)	-ja	-ci	.
8r	8B/ 8e 8g	.	8b\	O!	O!	.
8GG\ 8G	8r	.	(8b\	Mat-	Pan-	.
8r	8B-X/ 8e 8g	.	8ee\)	-ko	-no!	.
!LO:LB:g=original	!LO:LB:g=original	!	!LO:LB:g=original	!	!	!
=21	=21	=21	=21	=21	=21	=21
*	*^	*	*	*	*	*
8AA\ 8A	8r	2ryy	.	8ee\L	dzie-	u-	.
8r	8A/ 8d 8f#	.	.	8ddn\J	.	.	.
8AAA/ 8AA	8r	.	.	8cc#X\	-ci	-słysz	.
8r	8A/ 8d#X 8f#	.	.	8bn/	wy-	tych	.
8AAA/ 8AA	8r	8ryy	.	4.a/	-słu-	mo-	.
8r	[4e/ [4g	8A\L	.	.	.	.	.
8AAA/ 8AA	.	8Bn\	.	.	.	.	.
8r	8e/] 8g]	8c#X\J	.	8e/	-chać	-dłów	.
*	*v	*v	*	*	*	*	*
=22	=22	=22	=22	=22	=22	=22
!	!	!	!	!	!	!LO:DY:a
*ped	*	*	*	*	*	*
4BBB-X/ 4BB-X	8r	.	(2fn/	chciéj,	głos,	<
.	8Fn</ 8dn 8fn	pp	.	.	.	.
4BBB-/ 4BB-	8ryy	.	.	.	.	.
.	8F</ 8d 8f	.	.	.	.	.
*Xped	*	*	*	*	*	*
8GGG/ 8GG	8r	.	4ffn\)	Ma-	Ma-	.
8r	8B-X/ 8d 8e	.	.	.	.	.
8GGG/ 8GG	8r	.	8ee\	-tko	-tko	[
8r	8B-/ 8d 8e	.	8ee\	twe	twe	.
=23	=23	=23	=23	=23	=23	=23
8AAA/ 8AA	8r	.	[4dd/	dzie-	dzie-	.
8r	8A/ 8d 8f#X	.	.	.	.	.
8AAA/ 8AA	8r	.	8dd/]	.	.	.
8r	8A/ 8f# 8a	.	16a/	-ci	-ci	.
.	.	.	16a/	wy-	wy-	.
8AAA/ 8AA	8r	.	(>4.b/	-słu-	-słu-	.
8r	8d/ 8g#X 8bn	.	.	.	.	.
8AAA/ 8AA	8r	.	.	.	.	.
!	!LO:TX:b:i:t=rallent	!	!LO:TX:a:i:t=rallent	!	!	!
8r	8e/ 8gn 8cc#	.	8c#/)	-chać	-chać	.
!LO:LB:g=original	!LO:LB:g=original	!	!	!LO:LB:g=original	!	!
=24	=24	=24	=24	=24	=24	=24
!	!	!	!LO:TX:a:i:t=Coro ad libitum	!	!	!
4DD\ 4D	4f#/ 4a 4dd	pp	4d/	chciéj	chciéj	.
4d\	4f#/	.	4d/ 4f#	Zdro-	Zdro-	.
4c#\	4e/ 4a	.	4c#/ 4e 4a	-waś	-waś	.
4B\	4f#/ 4dd	.	4B/ 4f# 4dd	Ma-	Ma-	.
=25	=25	=25	=25	=25	=25	=25
*	*^	*	*^	*	*	*
2A#X\	(4.ff#/	2f#\ 2cc#	.	(<4.ff#/	2A\ 2f# 2cc#	-ry-	-ry-	.
.	8ee/)	.	.	8ee/)	.	.	.	.
2B\	2dd/	2f#\ 2b	.	2f#/ 2b 2dd	2B\ 2f#	-ia	-ia	.
*	*v	*v	*	*	*	*	*	*
=26	=26	=26	=26	=26	=26	=26	=26
4r	4r	.	4r	4ryy	.	.	.
4B\	4f#/ 4b 4dd	.	4f#/ 4b 4dd	4B\	zdro-	zdro-	.
4G\	4g/ 4b 4ff#	.	4g/ 4b 4ff#	4G\	-waś	-waś	.
4G\	4g/ 4b 4ee	.	4g/ 4b 4ee	4G\	Ma-	Ma-	.
=27	=27	=27	=27	=27	=27	=27	=27
1An	(2f#/ 2a 2dd	.	(2f#/ 2a 2dd	1B	-ry-	-ry-	.
.	2g/) 2a 2cc#	.	2g/) 2a 2cc#	.	.	.	.
=28	=28	=28	=28	=28	=28	=28	=28
2d\	2f#/ 2a 2dd	.	2f#/ 2a 2dd	2d\	-a!	-a!	.
!LO:TX:t=P:problem:Segno jako kreska końcowa	!	!	!	!	!	!	!
!LO:TX:a:t=Fine	!LO:TX:t=P:problem:Segno jako kreska końcowa	!	!LO:TX:t=P:problem:Segno jako kreska końcowa	!	!	!	!
2r	2r	.	2r	2ryy	.	.	.
!LO:LB:g=original	!LO:LB:g=original	!	!LO:LB:g=original	!	!	!	!
*	*	*	*v	*v	*	*	*
=29||	=29||	=29||	=29||	=29||	=29||	=29||
*M4/4	*M4/4	*	*M4/4	*	*	*
*met(c)	*met(c)	*	*met(c)	*	*	*
!	!	!	!LO:TX:t=P:problem:met C.	!	!	!
!	!	!	!LO:TX:a:t=3cia Strofa	!	!	!
1DDyy 1D	(8d/Lyy 8f#	p	2a/	Zdro-	.	.
.	8A/yy	.	.	.	.	.
.	8d/yy 8f#	.	.	.	.	.
.	8A/J)yy	.	.	.	.	.
.	(8c#/Lyy 8g	.	4cc#\	-waś	.	.
.	8A/yy	.	.	.	.	.
.	8d/yy 8f#	.	4dd\	Ma-	.	.
.	8A/J)yy	.	.	.	.	.
=30	=30	=30	=30	=30	=30	=30
2AAA\yy 2AA	(8c#/Lyy 8a	.	(4.ff#\	-ry-	.	.
.	8A/yy	.	.	.	.	.
.	8c#/yy 8g	.	.	.	.	.
.	8A/J)yy	.	8ee\)	.	.	.
4DD\yy 4D	(8d/Lyy 8f#	.	2dd\	-a!	.	.
.	8A/yy	.	.	.	.	.
4ryy	8d/yy 8f#	.	.	.	.	.
.	8A/J)yy	.	.	.	.	.
=31	=31	=31	=31	=31	=31	=31
2BBB\yy 2BB	(8B/Lyy 8d	.	2dd\	Tyś	.	.
.	8F#/yy	.	.	.	.	.
.	8B/yy 8d	.	.	.	.	.
.	8F#/J)yy	.	.	.	.	.
2BBB-X\yy 2BB-X	(8G#X/Lyy 8d 8e	.	4dd\	dzie-	.	.
.	8E/yy	.	.	.	.	.
.	8G#/yy 8d 8e	.	4dd\	-wic	.	.
.	8E/J)yy	.	.	.	.	.
=32	=32	=32	=32	=32	=32	=32
!	!	!	!	!	!	!LO:DY:a
4AAA\yy 4AA	(8c#/Lyy 8e	.	(2.cc#\	wzór,	.	>
.	8A/yy	.	.	.	.	.
4FF#\yy 4F#	8A#X/yy 8f#	.	.	.	.	.
.	8c#/J)yy	.	.	.	.	.
4EEn\yy 4En	(8A#X/Lyy 8gn	.	.	.	.	.
.	8c#/yy	.	.	.	.	.
4AAAn\yy 4AAn	8An/yy 8g	.	4b\)	Ty	.	]]
.	8c#/J)yy	.	.	.	.	.
!LO:LB:g=original	!LO:LB:g=original	!LO:LB:g=original	!	!LO:LB:g=original	!	!
=33	=33	=33	=33	=33	=33	=33
1DDyy 1D	(8d/Lyy 8f#	pp	4an/	przy-	.	.
.	8A/yy	.	.	.	.	.
.	8d/yy 8f#	.	4dd\	-czyń	.	.
.	8A/J)yy	.	.	.	.	.
.	(8c#/Lyy 8g 8a	.	8cc#\	się	.	.
.	8A/yy	.	8b\	do	.	.
.	8d/yy 8f# 8a	.	8a\	Twe-	.	.
.	8A/J)yy	.	8dd\	-go	.	.
=34	=34	=34	=34	=34	=34	=34
2AAA\yy 2AA	(8c#/Lyy 8g 8a	.	(4.ff#\	Sy-	.	.
.	8A/yy	.	.	.	.	.
.	8c#/yy 8g	.	.	.	.	.
.	8A/J)yy	.	8ee\)	.	.	.
2DD\yy 2D	(8d/Lyy 8f#	.	4dd\	-na,	.	.
.	8A/yy	.	.	.	.	.
.	8B#X/yy 8f#	.	(4dd\	Niech	.	.
.	8A/J)yy	.	.	.	.	.
=35	=35	=35	=35	=35	=35	=35
2CC#\yy 2C#	(8A#X/Lyy 8f#	.	8ff#\)	cno-	.	.
.	8c#/yy	.	8a#X\	-ty	.	.
.	8A#/yy 8f#	.	8g#X/	czys-	.	.
.	8c#/J)yy	.	8a#/	-ty	.	.
2CC#\yy 2C#	(8B/Lyy 8g#X	.	4.b/	wska-	.	.
.	8c#/yy	.	.	.	.	.
.	8B/yy 8e#X	.	.	.	.	.
.	8c#/J)yy	.	8g#/	-że	.	.
!LO:LB:g=original	!LO:LB:g=original	!	!LO:LB:g=original	!	!	!
=36	=36	=36	=36	=36	=36	=36
*^	*	*	*	*	*	*
2CC#\yy 2C#	8r	12A/yy 12f#	.	2a#X/	tor	.	.
.	.	12f#/Lyy 12a#X 12ff#	.	.	.	.	.
.	8ryy	.	.	.	.	.	.
.	.	12f#/Jyy 12a# 12ff#	.	.	.	.	.
.	12C#/Lyy 12F# 12A#X	12f#/Lyy 12a# 12ff#	.	.	.	.	.
.	12C#/yy 12F# 12A#	12g#X/yy 12b 12gg#X	.	.	.	.	.
.	12C#/Jyy 12F# 12A#	12a#/Jyy 12cc# 12aa#X	<	.	.	.	.
2CC#\yy 2C#	8reyy	8a#'/yy 8cc# 8aa#	.	4r	.	.	.
.	8C#/Lyy 8E#X 8G#X 8B	8g#'/Lyy 8b 8gg#	.	.	.	.	.
.	8C#/yy 8E# 8G# 8B	8e#X'/yy 8g# 8ee#X	.	(4cc#\	Prze-	.	.
.	8C#/Jyy 8E# 8G# 8B	8g#'/Jyy 8b 8gg#	[[	.	.	.	.
*v	*v	*	*	*	*	*	*
=37	=37	=37	=37	=37	=37	=37
4DD#X\yy 4D#X	8ryy	.	(4ff#\)	-wi-	.	.
.	8f#'/Lyy 8a#X 8ff#	ff	.	.	.	.
4BBB\yy 4BB	8e#X'/yy 8cc# 8ee#X	.	8ee#X\)	.	.	.
.	8d#X'/Jyy 8b 8dd#X	.	8dd#X\	-nień	.	.
4CC#\yy 4C#	12c#/Lyy 12a#X 12cc#	.	8cc#\	na-	.	.
.	12A#X/yy 12f# 12a#	.	.	.	.	.
.	.	.	8cc#\	-szych	.	.
.	12c#/Jyy 12a# 12cc#	.	.	.	.	.
4CC#\yy 4C#	12B/Lyy 12c# 12g#X 12b	.	8.cc#\	za-	.	.
.	12B/yy 12c# 12g#	.	.	.	.	.
.	12B/Jyy 12c# 12a#X	.	.	.	.	.
.	.	.	16e#X/	-po-	.	.
=38	=38	=38	=38	=38	=38	=38
[2FF#\yy [2F#	8ryy	.	4f#/	-mi-	.	.
.	8A#X'/Lyy 8c# 8f# 8a#X	.	.	.	.	.
.	.	.	16qqa#X/LL	.	.	.
.	.	.	16qqg#X/JJ	.	.	.
.	8A#'/yy 8c# 8f# 8a#	.	4f#/	-na;	.	.
.	8A#'/Jyy 8c# 8f# 8a#	>	.	.	.	.
4FF#\]yy 4F#]	8A#'/Lyy 8c# 8f# 8a#	.	4r	.	.	.
.	8A#'/yy 8c# 8f# 8a#	.	.	.	.	.
4ryy	8A#'/yy 8c# 8f# 8a#	.	4f#/	A	.	.
.	8A#'/Jyy 8c# 8f# 8a#	]]	.	.	.	.
=39	=39	=39	=39	=39	=39	=39
4DDn/yy 4Dn	8ryy	.	(4.f#/	kie-	.	.
.	8An/Lyy 8cn 8f# 8an	pp	.	.	.	.
4ryy	8A/yy 8c 8f# 8a	.	.	.	.	.
.	8A/Jyy 8c 8f# 8a	.	8een\)	-dy	.	.
4DD/yy 4D	8ryy	.	8ddn\	przyj-	.	.
.	8A/Lyy 8c 8f# 8a	.	8ccn\	-dzie	.	.
4DD/yy 4D	8ryy	.	8bn/	Chwi-	.	.
.	8A/Jyy 8c 8f# 8a	.	8an/	-la	.	.
!	!LO:LB:g=original	!	!	!LO:LB:g=original	!	!
=40	=40	=40	=40	=40	=40	=40
[2DD/yy [2D	8ryy	.	8.b/L	zgo-	.	.
.	8B/Lyy 8d 8gn	.	.	.	.	.
.	.	.	16a/Jk	.	.	.
.	8B/yy 8d 8g	.	4gn/	-nu,	.	.
.	8B/Jyy 8d 8g	.	.	.	.	.
4DD/]yy 4D]	8B/Lyy 8d 8g	.	4r	.	.	.
.	8B/yy 8d 8g	.	.	.	.	.
4ryy	8B/yy 8d 8g	.	4g/	Ty	.	.
.	8B/Jyy 8d 8g	.	.	.	.	.
=41	=41	=41	=41	=41	=41	=41
!	!	!	!	!	!	!LO:DY:a
4DD\yy 4D	8ryy	.	4.g/	Mat-	.	<
.	8B-X/Lyy 8d 8g	.	.	.	.	.
4DD\yy 4D	8ryy	.	.	.	.	.
.	8B-/Jyy 8d 8g	.	8g/	-ko	.	.
2EE-X\yy 2E-X	8ryy	.	8g/	Bo-	.	.
.	8G/Lyy 8B-X 8g	.	8g/	-ga	.	.
.	8A/yy 8cn 8g	.	8a/	przy	.	.
.	8G/Jyy 8c#X 8g	.	8g/	nas	.	[[
=42	=42	=42	=42	=42	=42	=42
!	!	!	!	!	!	!LO:DY:a
[2DD\yy [2D	8ryy	.	2.f#/	bądz,	.	>
.	8A/Lyy 8d 8f#	.	.	.	.	.
.	8A/yy 8d 8f#	.	.	.	.	.
.	8A/Jyy 8d 8f#	.	.	.	.	.
4DD\]yy 4D]	8A/Lyy 8d 8f#	.	.	.	.	.
.	8A/yy 8d 8f#	.	.	.	.	.
4ryy	8A/yy 8d 8f#	.	4f#/	Nas	.	]]
.	8A/Jyy 8d 8f#	.	.	.	.	.
=43	=43	=43	=43	=43	=43	=43
!	!	!	!	!	!	!LO:DY:a
[2AAA/yy [2AA	8ryy	.	4.g/	grzesz-	.	<
.	8A/Lyy 8c#X 8g	p	.	.	.	.
.	8A/yy 8c# 8g	.	.	.	.	.
.	8A/Jyy 8c# 8g	.	8a/	-nych	.	.
8AAA/]yy 8AA]	8ryy	.	8b/	zbliż	.	.
8GG/Lyy 8G	8A/Lyy 8c# 8e	<	8cc#X\	do	.	.
8FF#/yy 8F#	8A/yy 8c# 8e	.	8dd\	Twe-	.	.
8EE/Jyy 8E	8A/Jyy 8c# 8e	[[	8ee\	-go	.	[[
!	!LO:LB:g=original	!	!	!LO:LB:g=original	!	!
=44	=44	=44	=44	=44	=44	=44
((2DD#X/yy 2D#X	8ryy	.	(2ee\	Tro-	.	.
.	8cn/Lyy 8f# 8a	rfz	.	.	.	.
.	8B/yy 8f# 8a	.	.	.	.	.
.	8c/Jyy 8f# 8a	.	.	.	.	.
8EE\))yy 8E	8ryy	.	8gg\)	-nu,	.	.
8ryy	8B/yy 8e 8g	.	8b\	Jak	.	.
8GG\yy 8G	8ryy	.	8b\	Mat-	.	.
8ryy	8B-X/yy 8e 8g	.	8ee\	-ka	.	.
=45	=45	=45	=45	=45	=45	=45
*	*^	*	*	*	*	*
8AA\yy 8A	8ryy	2r	.	8ee\L	dzie-	.	.
8ryy	8A/yy 8d 8f#	.	.	8dd\J	.	.	.
8AAA/yy 8AA	8ryy	.	.	8cc#X\L	-ci	.	.
8ryy	8A/yy 8d#X 8f#	.	.	8bn\J	.	.	.
8AAA/yy 8AA	8ryy	8r	.	(4.a/	Two-	.	.
8ryy	[4e/yy [4g	8A/Lyy	.	.	.	.	.
8AAA/yy 8AA	.	8Bn/yy	.	.	.	.	.
8ryy	8e/]yy 8g]	8c#X/Jyy	.	8e/)	-je	.	.
*	*v	*v	*	*	*	*	*
=46	=46	=46	=46	=46	=46	=46
4BBB-X/yy 4BB-X	8ryy	.	(<2fn/	sądź,	.	.
.	8Fn/yy 8dn 8fn	pp	.	.	.	.
4BBB-/yy 4BB-	8r	.	.	.	.	.
.	8F/yy 8d 8f	.	.	.	.	.
8GGG/yy 8GG	8ryy	.	4ffn\)	Mat-	.	.
8ryy	8B-X/yy 8d 8e	.	.	.	.	.
8GGG/yy 8GG	8ryy	.	8ee\	-ko	.	.
8ryy	8B-/yy 8d 8e	.	8ee\	Twe	.	.
=47	=47	=47	=47	=47	=47	=47
8AAA/yy 8AA	8ryy	.	[4dd\	dzie-	.	.
8ryy	8A/yy 8d 8f#X	.	.	.	.	.
8AAA/yy 8AA	8ryy	.	8dd\]	.	.	.
8ryy	8A/yy 8f# 8a	.	16a/	-ci	.	.
.	.	.	16a/	wy-	.	.
!	!	!	!LO:TX:a:i:t=rallent	!	!	!
8AAA/yy 8AA	8ryy	.	4.b/	-słu-	.	.
8ryy	8d/yy 8g#X 8bn	.	.	.	.	.
8AAA/yy 8AA	8ryy	.	.	.	.	.
!	!LO:TX:b:i:t=rallent	!	!	!	!	!
8ryy	8e/yy 8gn 8cc#	.	8c#X/	-chać	.	.
!	!LO:LB:g=original	!	!	!LO:LB:g=original	!	!
=48	=48	=48	=48	=48	=48	=48
4DD\yy 4D	4f#/yy 4a 4dd	pp	4d/	chciéj.	.	.
4d\yy	4f#/yy	.	4f#/	Zdro-	.	.
4c#\yy	4e/yy 4a	.	4a/	-waś	.	.
[4B\yy	4f#/yy 4dd	.	4dd\	Ma-	.	.
=49	=49	=49	=49	=49	=49	=49
*	*^	*	*	*	*	*
2A#X\]	(4.ff#/yy	2f#/yy 2cc#	.	(4.ff#\	-ry-	.	.
.	8ee/)yy	.	.	8ee\)	.	.	.
2B\yy	2dd\yy	2f#/yy 2b	.	2dd\	-a	.	.
*	*v	*v	*	*	*	*	*
=50	=50	=50	=50	=50	=50	=50
4ryy	4ryy	.	4r	.	.	.
4B\yy	4f#/yy 4b 4dd	.	4dd\	Zdro-	.	.
4G\yy	4g/yy 4b 4ff#	.	4ff#\	-waś	.	.
[4G\yy	4g/yy 4b 4ee	.	4ee\	Ma-	.	.
=51	=51	=51	=51	=51	=51	=51
[1An]	(2f#/yy 2a 2dd	.	(2dd\	-ry-	.	.
.	2g/)yy 2a 2cc#	.	2cc#\)	.	.	.
=52	=52	=52	=52	=52	=52	=52
2d\]	2f#/yy 2a 2dd	.	2dd\	-a.	.	.
!	!	!	!LO:TX:b:t=Fine	!	!	!
!	!	!	!LO:TX:b:t=JM	!	!	!
2ryy	2ryy	.	2r	.	.	.
==	==	==	==	==	==	==
*-	*-	*-	*-	*-	*-	*-
!!!RDF**kern: > = above
!!!RDF**kern: < = below
!!!system-decoration: s1[(s2,s3)]
!!!ENC: Filip Voros
!!!END: 2022-08-04
!!!ENC: Julita Ruszuk
!!!END: 2022-09-08!!!YEC: Copyright 2022 Narodowy Instytut Fryderyka Chopina (https://polishscores.org)
!!!YEM: License CC-BY-4.0 (https://creativecommons.org/licenses/by/4.0)
